X:1
T:Land of Sweet Erin, or the Twin Sisters
L:1/8
M:6/8
I:linebreak $
K:C
V:1 treble 
V:1
 G | cdc cGE | GAG GAB | cdc cGE | Ddd ded | cdc cGE | GAG g2 f | ede dBG |$ AcB c2 :: G | %10
 ceg gec | GBd dBG | ceg gec | egg g2 G | ceg gec | Bcd dgf |$ ede dBG | AcB c2 :| %18
